X:1
T: Miss Isabella Robertson's Reel Hornpipe
C:Bruce Shawyer rewritten from 9/8
R:Reel
Q:232
K:F
M:4/4
L:1/8
|:c|"F"f2ef "Bb"dc BA|"Dm"f2ef "Bb"dg "C7"ec|"F"f2fe "Dm"dc BA|"Bb"dc BA "C7"BG DC|
"F"f2ef "Bb"dc BA|"Dm"f2ef "Bb"dg "C7"ec|"F"f2fe "Dm"dc BA|"Bb"dc BA "C7"G4|
"F"cA Fc AF "Bb"dB|"F"cA Fc AF "C7"GE|"F"cA Fc AF "Bb"dB|"F"cf "C7"cB "F"AG F2|
"F"cA Fc AF "Bb"dB|"F"cA Fc AF "C7"GE|"Bb"DE FG "F"AB cd|"C7"ba ge "F"f2f:|
